!!!COM: Palestrina, Giovanni Perluigi da
!!!OPR: O sacrum convivium
!!!OTL: Benedictus
**kern	**kern	**kern	**kern
*Ibass	*Itenor	*Icalto	*Icant
!Bassus	!Tenor	!Altus	!Cantus
*clefF4	*clefGv2	*clefG2	*clefG2
*k[b-]	*k[b-]	*k[b-]	*k[b-]
*F:ion	*F:ion	*F:ion	*F:ion
*M4/2	*M4/2	*M4/2	*M4/2
=1	=1	=1	=1
0r	0r	1.f	0r
.	.	2g	.
=2	=2	=2	=2
0r	0r	2f	1r
.	.	2d	.
.	.	2.f	[1cc
.	.	4g	.
=3	=3	=3	=3
0r	0r	2a	2cc]
.	.	2b-	2dd
.	.	2a	2cc
.	.	[2cc	2a
=4	=4	=4	=4
0r	1.c	4cc]	2.cc
.	.	4b-	.
.	.	2a	.
.	.	.	4dd
.	.	2g	2ee
.	2d	2f	2ff
=5	=5	=5	=5
0r	2c	2g	1.ee
.	2A	2.cc	.
.	2.c	.	.
.	.	4b-	.
.	.	2a	[2cc
.	4d	.	.
=6	=6	=6	=6
0r	2e	2g	4cc]
.	.	.	4b-
.	2f	1f	2a
.	2c	.	1g
.	[2c	2e	.
=7	=7	=7	=7
1.F	2c]	1f	2a
.	2d	.	1a
.	2c	2r	.
2G	4B-	4d	2b-
.	4c	4e	.
=8	=8	=8	=8
2F	4d	4f	1a
.	4e	4g	.
2D	2.f	2.a	.
2.F	.	.	2f
.	4e	4g	.
.	2d	2f	[2a
4G	.	.	.
=9	=9	=9	=9
2A	2c	2e	2a]
2B-	1d	2d	2g
1A	.	1e	[1a
.	2c#	.	.
=10	=10	=10	=10
2.D	1.d	2r	1a]
.	.	1f	.
4C	.	.	.
2D	.	.	2r
2E	4c	2g	[2cc
.	4B-	.	.
=11	=11	=11	=11
2F	4A	2f	2cc]
.	8G	.	.
.	8A	.	.
2BB-	2B-	2d	2dd
[1F	1A	2.f	2cc
.	.	.	2a
.	.	4g	.
=12	=12	=12	=12
1F]	2r	4a	2.cc
.	.	4b-	.
.	1c	2a	.
.	.	.	4dd
1r	.	2g	2ee
.	2d	2f	2ff
=13	=13	=13	=13
1r	2c	2g	0ee
.	2A	2.cc	.
2r	2.c	.	.
.	.	4b-	.
[2c	.	2a	.
.	4d	.	.
=14	=14	=14	=14
2c]	2e	2g	2r
2d	2f	2f	2a
2c	2g	2e	1cc
2A	[2f	2a	.
=15	=15	=15	=15
2.c	2f]	1g	2cc
.	2e	.	2.cc
4B-	.	.	.
4A	[1f	[1a	.
4G	.	.	4b-
4F	.	.	4a
4E	.	.	4g
=16	=16	=16	=16
2D	2f]	2a]	2f
2E	2e	2g	2g
1F	2d	2f	1a
.	[2c	2e	.
=17	=17	=17	=17
1G	2c]	1d	1g
.	2B	.	.
1C	1c	1e	2r
.	.	.	2g
=18	=18	=18	=18
0r	1F	2r	4a
.	.	.	4b-
.	.	2c	4cc
.	.	.	4a
.	1r	4d	2b-
.	.	4e	.
.	.	4f	2a
.	.	4d	.
=19	=19	=19	=19
0r	0r	2e	2g
.	.	2d	4f
.	.	.	4g
.	.	4c	4a
.	.	4d	4b-
.	.	4e	4cc
.	.	4f	4a
=20	=20	=20	=20
0r	2r	4g	4b-
.	.	4e	4cc
.	2B-	4f	2dd
.	.	4g	.
.	4c	2a	2cc
.	4d	.	.
.	4e-	[2g	4b-
.	4c	.	4a
=21	=21	=21	=21
1r	2d	4g]	4b-
.	.	4f	4a
.	2d	1f	4a
.	.	.	8g
.	.	.	8f
2r	1c	.	2g
2C	.	2e	2g
=22	=22	=22	=22
4D	2.A	1f	4f
4E	.	.	4g
4F	.	.	4a
4D	4F	.	4b-
2E	2G	2r	1cc
2F	2A	2c	.
=23	=23	=23	=23
1BB-	1B-	4d	2r
.	.	4e	.
.	.	4f	2f
.	.	4d	.
1r	1G	2e	4g
.	.	.	4a
.	.	2d	4b-
.	.	.	4g
=24	=24	=24	=24
2r	1F	1f	2a
2F	.	.	2a
4G	1r	2.d	2b-
4A	.	.	.
4B-	.	.	2dd
4G	.	4e	.
=25	=25	=25	=25
2A	0r	2f	2cc
2G	.	1g	2.b-
1d	.	.	.
.	.	.	4a
.	.	[2f	4a
.	.	.	8g
.	.	.	8f
=26	=26	=26	=26
2.c	1r	2f]	2g
.	.	2e	1cc
4c	.	.	.
1G	2r	1d	.
.	2G	.	2b
=27	=27	=27	=27
2r	4A	1c	1cc
.	4B-	.	.
2C	4c	.	.
.	4A	.	.
4D	2B-	1r	1r
4E	.	.	.
4F	2A	.	.
4D	.	.	.
=28	=28	=28	=28
2E	2G	0r	0r
2D	4F	.	.
.	4G	.	.
4C	4A	.	.
4D	4B-	.	.
4E	4c	.	.
4F	4A	.	.
=29	=29	=29	=29
4G	4B-	0r	1r
4E	4c	.	.
1F	2.d	.	.
.	.	.	2r
.	4c	.	.
2E	[2c	.	2cc
=30	=30	=30	=30
2D	2c]	1r	4dd
.	.	.	4ee
2D	2B	.	4ff
.	.	.	4dd
1C	1c	2r	[1ee
.	.	2g	.
=31	=31	=31	=31
0r	2r	4a	2ee]
.	.	4b-	.
.	2c	4cc	2ee
.	.	4a	.
.	4d	2b-	1dd
.	4e	.	.
.	4f	2a	.
.	4d	.	.
=32	=32	=32	=32
2r	2e	2g	2.cc
2F	2f	1a	.
.	.	.	4a
4G	2.d	.	4b-
4A	.	.	4cc
4B-	.	[2g	[2dd
4G	4B-	.	.
=33	=33	=33	=33
2A	1c	2g]	4dd]
.	.	.	4cc
2A	.	2f	1cc
1G	2.d	1g	.
.	.	.	2b-
.	4e	.	.
=34	=34	=34	=34
1.F	1f	1c	1.a
.	1c	2.f	.
2F	.	.	2a
.	.	4f	.
=35	=35	=35	=35
0C	0c	0e	0g
==	==	==	==
*-	*-	*-	*-
!!!CDT: 1525/^1526/-1594/2/2
!!!OCY: Italia
!!!AGN: Mass (Parody)
!!!AST: renaissance, vocal
!!!ASW: Motet (Morales)
!!!PWK: Masses, Book 8
!!!RNB: Cadence finals: C
!!!YOR: Le Opere Complete, v. 24, p. 227
!!!YOO: Rome, Italy: Fratelli Scalera
!!!END: 1992//
!!!EED: John Miller
!!!YEC: Copyright 2000, John Miller
!!!YEN: United States of America
!!!YEM: Rights to all derivative electronic formats reserved.
!!!YEM: Refer to licensing agreement for further details.
!!!YEM: This file must be accompanied by the licensing agreement.
!!!YEM: A copy of the licensing agreement may be found at http://www.music-cog.ohio-state.edu/HumdrumDatabases/Palestrina/license.txt
!!!EMD: converted to Humdrum by Bret Aarden
